img/gallery-item-pic.svg

<svg xmlns="http://www.w3.org/2000/svg" width="46" height="48"><path fill-rule="evenodd" fill="#828C8E" d="M39.5 48.001h-33c-3.313 0-6-2.687-6-6V6c0-3.314 2.687-6 6-6h33c3.314 0 6 2.686 6 6v36.001c0 3.313-2.686 6-6 6zM42.5 6c0-1.654-1.346-3-3-3h-33c-1.654 0-3 1.346-3 3v36.001c0 1.652 1.346 3 3 3h33c1.654 0 3-1.348 3-3V6zM38 36H8c-.829 0-1.5-.67-1.5-1.499V7.5C6.5 6.671 7.171 6 8 6h30c.829 0 1.5.671 1.5 1.5v27.001C39.5 35.33 38.829 36 38 36zM8 34.501h23.112l-4.142-4.799-.87-.988L14 15l-6 6.899v12.602zM38 7.5H8v12.13l4.875-5.622c.286-.324.694-.508 1.125-.508.431 0 .839.184 1.125.508l11.846 13.426 3.904-4.426c.286-.323.694-.508 1.125-.508.431 0 .839.185 1.125.508L38 28.304V7.5zm0 23.069L32 24l-4.03 4.568 5.142 5.933H38v-3.932zM29 19.5c-2.486 0-4.5-2.014-4.5-4.5s2.014-4.5 4.5-4.5 4.5 2.014 4.5 4.5-2.014 4.5-4.5 4.5zm0-7.5c-1.654 0-3 1.346-3 3s1.346 3 3 3 3-1.346 3-3-1.346-3-3-3z"/></svg>

﻿<svg 
 xmlns="http://www.w3.org/2000/svg"
 xmlns:xlink="http://www.w3.org/1999/xlink"
 width="46px" height="48px">
<path fill-rule="evenodd"  fill="rgb(130, 140, 142)"
 d="M39.500,48.001 L6.500,48.001 C3.187,48.001 0.500,45.314 0.500,42.001 L0.500,6.000 C0.500,2.686 3.187,-0.000 6.500,-0.000 L39.500,-0.000 C42.814,-0.000 45.500,2.686 45.500,6.000 L45.500,42.001 C45.500,45.314 42.814,48.001 39.500,48.001 ZM42.500,6.000 C42.500,4.346 41.154,3.000 39.500,3.000 L6.500,3.000 C4.846,3.000 3.500,4.346 3.500,6.000 L3.500,42.001 C3.500,43.653 4.846,45.001 6.500,45.001 L39.500,45.001 C41.154,45.001 42.500,43.653 42.500,42.001 L42.500,6.000 ZM38.000,36.000 L8.000,36.000 C7.171,36.000 6.500,35.330 6.500,34.501 L6.500,7.500 C6.500,6.671 7.171,6.000 8.000,6.000 L38.000,6.000 C38.829,6.000 39.500,6.671 39.500,7.500 L39.500,34.501 C39.500,35.330 38.829,36.000 38.000,36.000 ZM8.000,34.501 L31.112,34.501 L26.970,29.702 L26.100,28.714 L14.000,15.000 L8.000,21.899 L8.000,34.501 ZM38.000,7.500 L8.000,7.500 L8.000,19.630 L12.875,14.008 C13.161,13.684 13.569,13.500 14.000,13.500 C14.431,13.500 14.839,13.684 15.125,14.008 L26.971,27.434 L30.875,23.008 C31.161,22.685 31.569,22.500 32.000,22.500 C32.431,22.500 32.839,22.685 33.125,23.008 L38.000,28.304 L38.000,7.500 ZM38.000,30.569 L32.000,24.000 L27.970,28.568 L33.112,34.501 L38.000,34.501 L38.000,30.569 ZM29.000,19.500 C26.514,19.500 24.500,17.486 24.500,15.000 C24.500,12.514 26.514,10.500 29.000,10.500 C31.486,10.500 33.500,12.514 33.500,15.000 C33.500,17.486 31.486,19.500 29.000,19.500 ZM29.000,12.000 C27.346,12.000 26.000,13.346 26.000,15.000 C26.000,16.654 27.346,18.000 29.000,18.000 C30.654,18.000 32.000,16.654 32.000,15.000 C32.000,13.346 30.654,12.000 29.000,12.000 Z"/>
</svg>
